X: 694
M: 6/8
L: 1/8
K: D
d |\
efe dcB | A>Bc/d/ edc | BAG F2E | D3- D2 :|
|: d |\
dDD Ddc | dcB dcB | cCC CcB | cBA cBA |\

